X:1
L:1/8
Q:1/4=60
M:4/4
K:C
 BEA ue2003 |[M:3/4][K:D]SOSOO .!fermata!PMTCO"_VB"(3(MABc) | d2 d2 A2 | (dc) (BA) (Bc) | 
 (d>e) (dc) (BA) | d3 e (3(def) | c2 (dc) (BA) | F4 A2 | B3 c d>e | d4 fe | d2 (de/f/) ed | 
 c2 (cd/e/) d>c | (B>c) (dc) (BA) | F4 (3(def) | B2 (dc) (BA) | F4 A2 | (B3 c) d{f}e | d4 || (de) | 
 f2 (f>e) (f>g) | f2 (fg/a/) gf | e2 e2 e2 | e3 f ac | d2 (df) (ed) | c2 (cd/e/) .d.c | 
 (B>c) (dc) (BA) | F4 (AB/c/) | (d>F) F2 .E.D | D4 (3(def) | e2 (dc) Bc |{B} A4 (3(def) | 
 (A>B) dc BA | (B>.A) F3 A | B3 (.c.d{f}.e) | d4 |] </s><end_of_turn>
<start_of_turn>model
Sure, here is the extracted motif in ABC format:

